;FLAVOR:RepRap
;TIME: 09:49:54
;Filament used: bioink;Layer height: 0.2
;Nozzle used: 0.2
;Generated by Julia's Generator
;with the following parameterfile: parameterfiles/2020-06-03_example_parameterfile.yaml

M107	; turn fan off
M302	;allow cold extrudes
G21 ;metric values
G90 ;absolute positioning
M83 ;set extruder to relative mode
M92 E3200; 1 mm syringe pump way is reached after 3200 motor steps
M117 Home all axes ;Put home message on LCD screen
G90 ; use absolute positioning like always
G28 X0 ;move X to min endstop
G28 Y0 ;move Y to min endstop
G28 Z0 ;move Z to min endstop, get nozzle to 0 now
G1 Z5G1 X10 Y10 ;move away from spring
G92 Z14.7 ;set homebed to zero
;M117 Printing cool gelly stuff ;Put printing message on LCD screen
G1 X10 Y10 E0.2; Extrude to make sure gel is in the nozzle
G1 Z5.0; move z-stage down to not crash to the sample holder

G1 F5000 X40 Y40
    M117 layer 1

    ;change to first extruder at the beginning of each layer
    T1

    ;GCODE of lines
    ;M117 Print lines...

        G1 F3000 X31.155 Y32.089 E0
        G1 Z1.1 E0.0
        G1 F500 X31.393 Y32.089 E0.00035259259259259266
        G1 Z4.1 E-3.5259259259259266e-05

        G1 F3000 X31.907 Y32.089 E0
        G1 Z1.1 E3.5259259259259266e-05
        G1 F500 X32.145 Y32.089 E0.00035259259259259266
        G1 Z4.1 E-3.5259259259259266e-05

        G1 F3000 X32.659 Y32.089 E0
        G1 Z1.1 E3.5259259259259266e-05
        G1 F500 X32.897 Y32.089 E0.00035259259259259266
        G1 Z4.1 E-3.5259259259259266e-05

        G1 F3000 X33.411 Y32.089 E0
        G1 Z1.1 E3.5259259259259266e-05
        G1 F500 X33.649 Y32.089 E0.00035259259259259266
        G1 Z4.1 E-3.5259259259259266e-05

        G1 F3000 X34.163 Y32.089 E0
        G1 Z1.1 E3.5259259259259266e-05
        G1 F500 X34.400999999999996 Y32.089 E0.000352592592592592
        G1 Z4.1 E-3.5259259259259205e-05

        G1 F3000 X34.915 Y32.089 E0
        G1 Z1.1 E3.5259259259259205e-05
        G1 F500 X35.153 Y32.089 E0.000352592592592592
        G1 Z4.1 E-3.5259259259259205e-05

        G1 F3000 X35.667 Y32.089 E0
        G1 Z1.1 E3.5259259259259205e-05
        G1 F500 X35.905 Y32.089 E0.0003525925925925933
        G1 Z4.1 E-3.5259259259259334e-05

        G1 F3000 X36.419 Y32.089 E0
        G1 Z1.1 E3.5259259259259334e-05
        G1 F500 X36.657 Y32.089 E0.0003525925925925933
        G1 Z4.1 E-3.5259259259259334e-05

        G1 F3000 X36.657 Y32.603 E0
        G1 Z1.1 E3.5259259259259334e-05
        G1 F500 X36.657 Y32.841 E0.00035259259259259266
        G1 Z4.1 E-3.5259259259259266e-05

        G1 F3000 X36.657 Y33.355 E0
        G1 Z1.1 E3.5259259259259266e-05
        G1 F500 X36.657 Y33.593 E0.00035259259259259266
        G1 Z4.1 E-3.5259259259259266e-05

        G1 F3000 X36.657 Y34.107 E0
        G1 Z1.1 E3.5259259259259266e-05
        G1 F500 X36.657 Y34.345 E0.000352592592592592
        G1 Z4.1 E-3.5259259259259205e-05

        G1 F3000 X36.657 Y34.859 E0
        G1 Z1.1 E3.5259259259259205e-05
        G1 F500 X36.657 Y35.097 E0.0003525925925925933
        G1 Z4.1 E-3.5259259259259334e-05

        G1 F3000 X36.657 Y35.611 E0
        G1 Z1.1 E3.5259259259259334e-05
        G1 F500 X36.657 Y35.849000000000004 E0.0003525925925925933
        G1 Z4.1 E-3.5259259259259334e-05

        G1 F3000 X36.657 Y36.363 E0
        G1 Z1.1 E3.5259259259259334e-05
        G1 F500 X36.657 Y36.601 E0.000352592592592592
        G1 Z4.1 E-3.5259259259259205e-05

        G1 F3000 X36.657 Y37.115 E0
        G1 Z1.1 E3.5259259259259205e-05
        G1 F500 X36.657 Y37.353 E0.000352592592592592
        G1 Z4.1 E-3.5259259259259205e-05

        G1 F3000 X36.143 Y37.353 E0
        G1 Z1.1 E3.5259259259259205e-05
        G1 F500 X35.905 Y37.353 E0.000352592592592592
        G1 Z4.1 E-3.5259259259259205e-05

        G1 F3000 X35.391 Y37.353 E0
        G1 Z1.1 E3.5259259259259205e-05
        G1 F500 X35.153 Y37.353 E0.0003525925925925933
        G1 Z4.1 E-3.5259259259259334e-05

        G1 F3000 X34.639 Y37.353 E0
        G1 Z1.1 E3.5259259259259334e-05
        G1 F500 X34.400999999999996 Y37.353 E0.0003525925925925933
        G1 Z4.1 E-3.5259259259259334e-05

        G1 F3000 X33.887 Y37.353 E0
        G1 Z1.1 E3.5259259259259334e-05
        G1 F500 X33.649 Y37.353 E0.00035259259259259266
        G1 Z4.1 E-3.5259259259259266e-05

        G1 F3000 X33.135 Y37.353 E0
        G1 Z1.1 E3.5259259259259266e-05
        G1 F500 X32.897 Y37.353 E0.00035259259259259266
        G1 Z4.1 E-3.5259259259259266e-05

        G1 F3000 X32.383 Y37.353 E0
        G1 Z1.1 E3.5259259259259266e-05
        G1 F500 X32.145 Y37.353 E0.00035259259259259266
        G1 Z4.1 E-3.5259259259259266e-05

        G1 F3000 X31.631 Y37.353 E0
        G1 Z1.1 E3.5259259259259266e-05
        G1 F500 X31.393 Y37.353 E0.00035259259259259266
        G1 Z4.1 E-3.5259259259259266e-05

        G1 F3000 X31.393 Y36.839 E0
        G1 Z1.1 E3.5259259259259266e-05
        G1 F500 X31.393 Y36.601 E0.0003525925925925933
        G1 Z4.1 E-3.5259259259259334e-05

        G1 F3000 X31.393 Y36.087 E0
        G1 Z1.1 E3.5259259259259334e-05
        G1 F500 X31.393 Y35.849000000000004 E0.000352592592592592
        G1 Z4.1 E-3.5259259259259205e-05

        G1 F3000 X31.393 Y35.335 E0
        G1 Z1.1 E3.5259259259259205e-05
        G1 F500 X31.393 Y35.097 E0.000352592592592592
        G1 Z4.1 E-3.5259259259259205e-05

        G1 F3000 X31.393 Y34.583 E0
        G1 Z1.1 E3.5259259259259205e-05
        G1 F500 X31.393 Y34.345 E0.0003525925925925933
        G1 Z4.1 E-3.5259259259259334e-05

        G1 F3000 X31.393 Y33.831 E0
        G1 Z1.1 E3.5259259259259334e-05
        G1 F500 X31.393 Y33.593 E0.00035259259259259266
        G1 Z4.1 E-3.5259259259259266e-05

        G1 F3000 X31.393 Y33.079 E0
        G1 Z1.1 E3.5259259259259266e-05
        G1 F500 X31.393 Y32.841 E0.00035259259259259266
        G1 Z4.1 E-3.5259259259259266e-05

        G1 F3000 X31.907 Y32.841 E0
        G1 Z1.1 E3.5259259259259266e-05
        G1 F500 X32.145 Y32.841 E0.00035259259259259266
        G1 Z4.1 E-3.5259259259259266e-05

        G1 F3000 X32.659 Y32.841 E0
        G1 Z1.1 E3.5259259259259266e-05
        G1 F500 X32.897 Y32.841 E0.00035259259259259266
        G1 Z4.1 E-3.5259259259259266e-05

        G1 F3000 X33.411 Y32.841 E0
        G1 Z1.1 E3.5259259259259266e-05
        G1 F500 X33.649 Y32.841 E0.00035259259259259266
        G1 Z4.1 E-3.5259259259259266e-05

        G1 F3000 X34.163 Y32.841 E0
        G1 Z1.1 E3.5259259259259266e-05
        G1 F500 X34.400999999999996 Y32.841 E0.000352592592592592
        G1 Z4.1 E-3.5259259259259205e-05

        G1 F3000 X34.915 Y32.841 E0
        G1 Z1.1 E3.5259259259259205e-05
        G1 F500 X35.153 Y32.841 E0.000352592592592592
        G1 Z4.1 E-3.5259259259259205e-05

        G1 F3000 X35.667 Y32.841 E0
        G1 Z1.1 E3.5259259259259205e-05
        G1 F500 X35.905 Y32.841 E0.0003525925925925933
        G1 Z4.1 E-3.5259259259259334e-05

        G1 F3000 X35.905 Y33.355 E0
        G1 Z1.1 E3.5259259259259334e-05
        G1 F500 X35.905 Y33.593 E0.00035259259259259266
        G1 Z4.1 E-3.5259259259259266e-05

        G1 F3000 X35.905 Y34.107 E0
        G1 Z1.1 E3.5259259259259266e-05
        G1 F500 X35.905 Y34.345 E0.000352592592592592
        G1 Z4.1 E-3.5259259259259205e-05

        G1 F3000 X35.905 Y34.859 E0
        G1 Z1.1 E3.5259259259259205e-05
        G1 F500 X35.905 Y35.097 E0.0003525925925925933
        G1 Z4.1 E-3.5259259259259334e-05

        G1 F3000 X35.905 Y35.611 E0
        G1 Z1.1 E3.5259259259259334e-05
        G1 F500 X35.905 Y35.849000000000004 E0.0003525925925925933
        G1 Z4.1 E-3.5259259259259334e-05

        G1 F3000 X35.905 Y36.363 E0
        G1 Z1.1 E3.5259259259259334e-05
        G1 F500 X35.905 Y36.601 E0.000352592592592592
        G1 Z4.1 E-3.5259259259259205e-05

        G1 F3000 X35.391 Y36.601 E0
        G1 Z1.1 E3.5259259259259205e-05
        G1 F500 X35.153 Y36.601 E0.0003525925925925933
        G1 Z4.1 E-3.5259259259259334e-05

        G1 F3000 X34.639 Y36.601 E0
        G1 Z1.1 E3.5259259259259334e-05
        G1 F500 X34.400999999999996 Y36.601 E0.0003525925925925933
        G1 Z4.1 E-3.5259259259259334e-05

        G1 F3000 X33.887 Y36.601 E0
        G1 Z1.1 E3.5259259259259334e-05
        G1 F500 X33.649 Y36.601 E0.00035259259259259266
        G1 Z4.1 E-3.5259259259259266e-05

        G1 F3000 X33.135 Y36.601 E0
        G1 Z1.1 E3.5259259259259266e-05
        G1 F500 X32.897 Y36.601 E0.00035259259259259266
        G1 Z4.1 E-3.5259259259259266e-05

        G1 F3000 X32.383 Y36.601 E0
        G1 Z1.1 E3.5259259259259266e-05
        G1 F500 X32.145 Y36.601 E0.00035259259259259266
        G1 Z4.1 E-3.5259259259259266e-05

        G1 F3000 X32.145 Y36.087 E0
        G1 Z1.1 E3.5259259259259266e-05
        G1 F500 X32.145 Y35.849000000000004 E0.000352592592592592
        G1 Z4.1 E-3.5259259259259205e-05

        G1 F3000 X32.145 Y35.335 E0
        G1 Z1.1 E3.5259259259259205e-05
        G1 F500 X32.145 Y35.097 E0.000352592592592592
        G1 Z4.1 E-3.5259259259259205e-05

        G1 F3000 X32.145 Y34.583 E0
        G1 Z1.1 E3.5259259259259205e-05
        G1 F500 X32.145 Y34.345 E0.0003525925925925933
        G1 Z4.1 E-3.5259259259259334e-05

        G1 F3000 X32.145 Y33.831 E0
        G1 Z1.1 E3.5259259259259334e-05
        G1 F500 X32.145 Y33.593 E0.00035259259259259266
        G1 Z4.1 E-3.5259259259259266e-05

        G1 F3000 X32.659 Y33.593 E0
        G1 Z1.1 E3.5259259259259266e-05
        G1 F500 X32.897 Y33.593 E0.00035259259259259266
        G1 Z4.1 E-3.5259259259259266e-05

        G1 F3000 X33.411 Y33.593 E0
        G1 Z1.1 E3.5259259259259266e-05
        G1 F500 X33.649 Y33.593 E0.00035259259259259266
        G1 Z4.1 E-3.5259259259259266e-05

        G1 F3000 X34.163 Y33.593 E0
        G1 Z1.1 E3.5259259259259266e-05
        G1 F500 X34.400999999999996 Y33.593 E0.000352592592592592
        G1 Z4.1 E-3.5259259259259205e-05

        G1 F3000 X34.915 Y33.593 E0
        G1 Z1.1 E3.5259259259259205e-05
        G1 F500 X35.153 Y33.593 E0.000352592592592592
        G1 Z4.1 E-3.5259259259259205e-05

        G1 F3000 X35.153 Y34.107 E0
        G1 Z1.1 E3.5259259259259205e-05
        G1 F500 X35.153 Y34.345 E0.000352592592592592
        G1 Z4.1 E-3.5259259259259205e-05

        G1 F3000 X35.153 Y34.859 E0
        G1 Z1.1 E3.5259259259259205e-05
        G1 F500 X35.153 Y35.097 E0.0003525925925925933
        G1 Z4.1 E-3.5259259259259334e-05

        G1 F3000 X35.153 Y35.611 E0
        G1 Z1.1 E3.5259259259259334e-05
        G1 F500 X35.153 Y35.849000000000004 E0.0003525925925925933
        G1 Z4.1 E-3.5259259259259334e-05

        G1 F3000 X34.639 Y35.849000000000004 E0
        G1 Z1.1 E3.5259259259259334e-05
        G1 F500 X34.400999999999996 Y35.849000000000004 E0.0003525925925925933
        G1 Z4.1 E-3.5259259259259334e-05

        G1 F3000 X33.887 Y35.849000000000004 E0
        G1 Z1.1 E3.5259259259259334e-05
        G1 F500 X33.649 Y35.849000000000004 E0.00035259259259259266
        G1 Z4.1 E-3.5259259259259266e-05

        G1 F3000 X33.135 Y35.849000000000004 E0
        G1 Z1.1 E3.5259259259259266e-05
        G1 F500 X32.897 Y35.849000000000004 E0.00035259259259259266
        G1 Z4.1 E-3.5259259259259266e-05

        G1 F3000 X32.897 Y35.335 E0
        G1 Z1.1 E3.5259259259259266e-05
        G1 F500 X32.897 Y35.097 E0.000352592592592592
        G1 Z4.1 E-3.5259259259259205e-05

        G1 F3000 X32.897 Y34.583 E0
        G1 Z1.1 E3.5259259259259205e-05
        G1 F500 X32.897 Y34.345 E0.0003525925925925933
        G1 Z4.1 E-3.5259259259259334e-05

    G1 Z4.1

    ;Slow movement to change nozzle:
    G1 Z 5.0

    ;cleaning routine follows:
    G1 F5000 X35 Y70 ;move to cleaning position
    G1 Z1.1
    G1 F1000 Y100
    G1 Z10.0
    G1 F5000 X40 Y40 ;move to initial position

    M117 layer 2

    ;change to first extruder at the beginning of each layer
    T1

    ;GCODE of lines
    ;M117 Print lines...

        G1 F3000 X31.155 Y32.089 E0
        G1 Z1.2600000000000002 E3.5259259259259334e-05
        G1 F500 X31.393 Y32.089 E0.00035259259259259266
        G1 Z4.26 E-3.5259259259259266e-05

        G1 F3000 X31.907 Y32.089 E0
        G1 Z1.2600000000000002 E3.5259259259259266e-05
        G1 F500 X32.145 Y32.089 E0.00035259259259259266
        G1 Z4.26 E-3.5259259259259266e-05

        G1 F3000 X32.659 Y32.089 E0
        G1 Z1.2600000000000002 E3.5259259259259266e-05
        G1 F500 X32.897 Y32.089 E0.00035259259259259266
        G1 Z4.26 E-3.5259259259259266e-05

        G1 F3000 X33.411 Y32.089 E0
        G1 Z1.2600000000000002 E3.5259259259259266e-05
        G1 F500 X33.649 Y32.089 E0.00035259259259259266
        G1 Z4.26 E-3.5259259259259266e-05

        G1 F3000 X34.163 Y32.089 E0
        G1 Z1.2600000000000002 E3.5259259259259266e-05
        G1 F500 X34.400999999999996 Y32.089 E0.000352592592592592
        G1 Z4.26 E-3.5259259259259205e-05

        G1 F3000 X34.915 Y32.089 E0
        G1 Z1.2600000000000002 E3.5259259259259205e-05
        G1 F500 X35.153 Y32.089 E0.000352592592592592
        G1 Z4.26 E-3.5259259259259205e-05

        G1 F3000 X35.667 Y32.089 E0
        G1 Z1.2600000000000002 E3.5259259259259205e-05
        G1 F500 X35.905 Y32.089 E0.0003525925925925933
        G1 Z4.26 E-3.5259259259259334e-05

        G1 F3000 X36.419 Y32.089 E0
        G1 Z1.2600000000000002 E3.5259259259259334e-05
        G1 F500 X36.657 Y32.089 E0.0003525925925925933
        G1 Z4.26 E-3.5259259259259334e-05

        G1 F3000 X36.657 Y32.603 E0
        G1 Z1.2600000000000002 E3.5259259259259334e-05
        G1 F500 X36.657 Y32.841 E0.00035259259259259266
        G1 Z4.26 E-3.5259259259259266e-05

        G1 F3000 X36.657 Y33.355 E0
        G1 Z1.2600000000000002 E3.5259259259259266e-05
        G1 F500 X36.657 Y33.593 E0.00035259259259259266
        G1 Z4.26 E-3.5259259259259266e-05

        G1 F3000 X36.657 Y34.107 E0
        G1 Z1.2600000000000002 E3.5259259259259266e-05
        G1 F500 X36.657 Y34.345 E0.000352592592592592
        G1 Z4.26 E-3.5259259259259205e-05

        G1 F3000 X36.657 Y34.859 E0
        G1 Z1.2600000000000002 E3.5259259259259205e-05
        G1 F500 X36.657 Y35.097 E0.0003525925925925933
        G1 Z4.26 E-3.5259259259259334e-05

        G1 F3000 X36.657 Y35.611 E0
        G1 Z1.2600000000000002 E3.5259259259259334e-05
        G1 F500 X36.657 Y35.849000000000004 E0.0003525925925925933
        G1 Z4.26 E-3.5259259259259334e-05

        G1 F3000 X36.657 Y36.363 E0
        G1 Z1.2600000000000002 E3.5259259259259334e-05
        G1 F500 X36.657 Y36.601 E0.000352592592592592
        G1 Z4.26 E-3.5259259259259205e-05

        G1 F3000 X36.657 Y37.115 E0
        G1 Z1.2600000000000002 E3.5259259259259205e-05
        G1 F500 X36.657 Y37.353 E0.000352592592592592
        G1 Z4.26 E-3.5259259259259205e-05

        G1 F3000 X36.143 Y37.353 E0
        G1 Z1.2600000000000002 E3.5259259259259205e-05
        G1 F500 X35.905 Y37.353 E0.000352592592592592
        G1 Z4.26 E-3.5259259259259205e-05

        G1 F3000 X35.391 Y37.353 E0
        G1 Z1.2600000000000002 E3.5259259259259205e-05
        G1 F500 X35.153 Y37.353 E0.0003525925925925933
        G1 Z4.26 E-3.5259259259259334e-05

        G1 F3000 X34.639 Y37.353 E0
        G1 Z1.2600000000000002 E3.5259259259259334e-05
        G1 F500 X34.400999999999996 Y37.353 E0.0003525925925925933
        G1 Z4.26 E-3.5259259259259334e-05

        G1 F3000 X33.887 Y37.353 E0
        G1 Z1.2600000000000002 E3.5259259259259334e-05
        G1 F500 X33.649 Y37.353 E0.00035259259259259266
        G1 Z4.26 E-3.5259259259259266e-05

        G1 F3000 X33.135 Y37.353 E0
        G1 Z1.2600000000000002 E3.5259259259259266e-05
        G1 F500 X32.897 Y37.353 E0.00035259259259259266
        G1 Z4.26 E-3.5259259259259266e-05

        G1 F3000 X32.383 Y37.353 E0
        G1 Z1.2600000000000002 E3.5259259259259266e-05
        G1 F500 X32.145 Y37.353 E0.00035259259259259266
        G1 Z4.26 E-3.5259259259259266e-05

        G1 F3000 X31.631 Y37.353 E0
